X:141
T:Bulgarian Red
C:Charlie McKerron
S:Session, Edinburgh
Z:Nigel Gatherer
M:4/4
L:1/8
K:Am
Addc d2 AB|c2 dc BGGB|Addc d2 de|f2 fa geed|Addc d2 AB|
c2 dc BGGA|B2 BG c2 ce|1f2 fa geed:|2f2 fa geec|]
dA (3AAA fAeA|dA (3AAA dcAc|dA (3AAA fAeA|f2 fa geed|dA (3AAA fAeA|
dA (3AAA dcAc|B2 BG c2 ce|1f2 fa geec:|2f2 fa geed|]
<end>
<start>
